mimetypes/scalable/application-x-ipynb+json.svg

<?xml version="1.0" standalone="no"?><!-- Generator: Gravit.io --><svg xmlns="http://www.w3.org/2000/svg" xmlns:xlink="http://www.w3.org/1999/xlink" style="isolation:isolate" viewBox="0 0 256 256" width="256" height="256"><switch><g><g id="application-mimetype"><g opacity="0.2"><path d=" M 78.924321 15.500025 C 43.627596 15.500025 39.829708 19.125398 40.002695 54.49353 L 40.002695 127.500014 L 40.002695 200.506441 C 39.829708 235.874573 43.627596 239.500004 78.924321 239.500004 L 177.081083 239.500004 C 212.377805 239.500004 216.002702 235.875035 216.002702 200.506441 L 216.002702 127.500014 L 216.002702 54.49353 C 216.002702 19.124994 212.377805 15.500025 177.081083 15.500025 L 78.924321 15.500025 Z " id="path1163" fill="none" vector-effect="non-scaling-stroke" stroke-width="4" stroke="rgb(0,0,0)" stroke-linejoin="miter" stroke-linecap="butt" stroke-miterlimit="4"/></g><defs><filter id="QMo93VI02MjFKGNE2JwM0NVdEThPoI1p" x="-200%" y="-200%" width="400%" height="400%" filterUnits="objectBoundingBox" color-interpolation-filters="sRGB"><feGaussianBlur xmlns="http://www.w3.org/2000/svg" stdDeviation="2.120027"/></filter></defs><g opacity="0.1" filter="url(#QMo93VI02MjFKGNE2JwM0NVdEThPoI1p)"><path d=" M 78.924315 16.5 C 43.627592 16.5 39.82971 20.125416 40.002699 55.493531 L 40.002699 128.5 L 40.002699 201.50647 C 39.82971 236.874573 43.627592 240.500001 78.924315 240.500001 L 177.081083 240.500001 C 212.377806 240.500001 215.084425 236.863068 216.002699 201.50647 L 216.002699 128.5 L 216.002699 55.493531 C 216.002699 20.124997 212.377806 16.5 177.081083 16.5 L 78.924315 16.5 Z " id="shadow" fill="rgb(0,0,0)"/></g><defs><filter id="HplGcNvRT90EBn9pSlaf2ZOB4hfiO6B2" x="-200%" y="-200%" width="400%" height="400%" filterUnits="objectBoundingBox" color-interpolation-filters="sRGB"><feGaussianBlur xmlns="http://www.w3.org/2000/svg" stdDeviation="8.4801079"/></filter></defs><g opacity="0.3" filter="url(#HplGcNvRT90EBn9pSlaf2ZOB4hfiO6B2)"><linearGradient id="_lgradient_243" x1="-0.0681490711308741" y1="0.03125" x2="0.9537210324437329" y2="1.0531201035746074" gradientTransform="matrix(176.005396,0,0,224,39.997303,16.5)" gradientUnits="userSpaceOnUse"><stop offset="0%" stop-opacity="0.58823532" style="stop-color:rgb(0,0,0)"/><stop offset="88%" stop-opacity="0" style="stop-color:rgb(0,0,0)"/><stop offset="100%" stop-opacity="1" style="stop-color:rgb(0,0,0)"/></linearGradient><path d=" M 78.924315 16.5 C 43.627592 16.5 39.82971 20.125416 40.002699 55.493531 L 40.002699 128.5 L 40.002699 201.50647 C 39.82971 236.874573 43.627592 240.500001 78.924315 240.500001 L 177.081083 240.500001 C 212.377806 240.500001 216.002699 236.875001 216.002699 201.50647 L 216.002699 128.5 L 216.002699 55.493531 C 216.002699 20.124997 212.377806 16.5 177.081083 16.5 L 78.924315 16.5 Z " id="blur" fill="url(#_lgradient_243)"/></g><path d=" M 78.924321 15.500025 C 43.627596 15.500025 39.829708 19.125398 40.002695 54.49353 L 40.002695 127.500014 L 40.002695 200.506441 C 39.829708 235.874573 43.627596 239.500004 78.924321 239.500004 L 177.081083 239.500004 C 212.377805 239.500004 216.002702 235.875035 216.002702 200.506441 L 216.002702 127.500014 L 216.002702 54.49353 C 216.002702 19.124994 212.377805 15.500025 177.081083 15.500025 L 78.924321 15.500025 Z " id="shape" fill="rgb(251,124,56)"/><g opacity="0.6"><path d=" M 78.924573 15.500025 C 43.627848 15.500025 39.829708 19.126032 40.002695 54.494165 L 40.002695 56.494138 C 39.829708 21.126005 43.627848 17.499998 78.924573 17.499998 L 177.080824 17.499998 C 212.377545 17.499998 216.002702 21.125601 216.002702 56.494138 L 216.002702 54.494165 C 216.002702 19.125571 212.377545 15.500025 177.080824 15.500025 L 78.924573 15.500025 Z " id="highlight" fill="rgb(255,255,255)"/></g><g opacity="0.1"><path d=" M 128.002691 15.500025 L 128.002691 239.500004 L 177.080824 239.500004 C 212.377531 239.500004 215.084421 235.863501 216.002702 200.506787 L 216.002702 127.500014 L 216.002702 54.493184 C 216.002702 19.124648 212.377531 15.500025 177.080824 15.500025 L 128.002691 15.500025 Z " id="right highlight" fill="rgb(255,255,255)"/></g><g opacity="0.2"><path d=" M 156.002703 239.500004 L 216.002702 179.500005 L 216.002702 201.983857 C 215.950394 235.97965 212.200019 239.500004 177.828601 239.500004 L 156.002703 239.500004 Z " id="clip" fill="rgb(255,255,255)"/></g></g><g id="Group"><circle vector-effect="non-scaling-stroke" cx="161.33555603027344" cy="79.77777777777777" r="7.7777777777777715" id="Ellipse" fill="rgb(255,255,255)"/><circle vector-effect="non-scaling-stroke" cx="92.89111158582898" cy="176.22222222222223" r="7.7777777777777715" id="Ellipse" fill="rgb(255,255,255)"/><circle vector-effect="non-scaling-stroke" cx="91.33555603027344" cy="87.55555555555554" r="6.2222222222222285" id="Ellipse" fill="rgb(255,255,255)"/><path d=" M 128.668889 84.444444 C 108.699852 84.467795 91.30461 98.067524 86.463556 117.440886 C 94.136706 108.705917 110.582482 103.12216 128.668889 103.111111 C 146.770523 103.124112 163.225159 108.71893 170.886666 117.465773 C 166.054145 98.078039 148.649812 84.464952 128.668889 84.444444 Z  M 86.451113 138.534227 C 91.283634 157.921967 108.687966 171.535048 128.668889 171.555556 C 148.637921 171.532199 166.033162 157.93247 170.874229 138.559114 C 163.201067 147.294078 146.755296 152.87784 128.668889 152.888889 C 110.567256 152.875893 94.11262 147.28107 86.451113 138.534227 Z " id="Compound Path" fill="rgb(255,255,255)"/></g></g><foreignObject requiredExtensions="http://ns.gravit.io/"><gravitDesigner:gravitElementRef xmlns:gravitDesigner="http://ns.gravit.io/" xlink:href="#iwEVb9fk4w9L16aFzJWSZlgvRS4mhg5j"/></foreignObject></switch><gravitDesigner:gravitGraphicSource xmlns:gravitDesigner="http://ns.gravit.io/" id="iwEVb9fk4w9L16aFzJWSZlgvRS4mhg5j" version="1"><![CDATA[eMKcw5Vaw7lzw6JYwpLDvlc2w6jCjcO9ZV1uw51HRUzDhMOoQkIHSEgCwqR2w4XChm4Jwp3DqEBCHcO1wr/Cr8OAw5jChsOqwqoaV0/Dj3TCj2zCsElew6Z7XyrCv8OMwpcPfsKdw719w7ZxVjlRMHvCmMO9w7fDrMOjL8K/XgRRXXbDlcKdwqRyw5p4EnhZw5kEw77DrGNbd8OBw4PCrGrCm2nDgC8zw5hZZcOawrpaOMKmw7LCt2nDkE/Dk8ODH8KweVkjFsKwwrHCkcOeMDtIwpNocwPCr8KJExXDscOxwqbCm8KGCMOTI8O0G8OwVcOzw5PDgy8zbsKhw6TCmsK5wrI9w6DDlRTCg27DplpSwotCwqDCpTI2NxVLczDCuVnCm8K6w5HCrcKzw6Q4DTkvLSPCvExzUsOSSW9Nwq1RMHozFUVhIcKNaVgZfcK/JkrCr1zCghbDiyoGDXrDu3BMwro3PcK7w7TDt29ocMKtNcKBwrDCpcKODVnDscOBUUQhAgZ9dyXDqcKRw6ILw77DqcKKw6bCssKEbSjCpy9oLsKOw5FJPk1fTcKhGMK6dzDDn8KILAJZw4lKw6VIwqZaw64KN8OewqzDgMOFwrFVwq5oLsKOecORwrzCmMOCFUxLw65MwqkrNMOieAnDnsOvB3pDwrTCpxhNwp3DhsOIw6bDqcK+wrbDmWFhXFfChUdow7TCqnk2w4UEwpvCvVbDnQFEw6LCo8KvcsKtZDkHVRV0B8Kkw7pAPybCi0xxw4wqworDosOrwqouwprDucOxDcOgRRDDn8O5GMOUKF7CgMOawoPCh1RrT8O3woZmwr/Ds8OZw6VOWg4Hw60INcOZwpteenfCmx12wolvD8KDJcKhdcKowpwMf8OEwrV6w5h7w6k8wrDCk3TCtVTCrmguwprCh8OFw5ttwr44JsK+C8K+LGgZaMKkVMOzw4AwwqPDlMKFUR4Ow5lmw6TChRpYw7HDm8KmwrzCosK5OMOmRcOzw5PCp8KHWR3ChMOtw5DDjj4WXcKWXV45woUXwpfDtTnDiMKnd8ObOsKcw77CgR9xwpxEIRzDgTAARUgYQR/CgMOpw6drw6JHDCNBDCQAwpzDgMOBw6nDp8OhA8KBYcKPIMKJw4AYBkEYDMKSw7hkwrZww7LDoEowEMOEw6BpXcO/w5fCtGU1w7sIPELDk8O/wplzCsOOK3jCoWFSwrTDssKzw6jClsKeYcKSZcOqw6t7ZxvDlcKEY8OGw7zDtMOLeXHDgMKnwrPDpDhZCcKdwqwJPj88K8K5ZcOtB8O1wr3CmsObw48+w4LCj8Okw6XDgsKBw6cLw4fDjm9kw55ZwqVrw5vDi8KwPMKbfUR+O8ONw6cJw5DDv0wSwo9bUMKdwq0XETbCksKHwphzTCAAw4VDwpNgw4U6UMKPwok1w7s8w6kGYcK4wphyw4lsLRlKYMKTw7VWwq/Co8KBZ1DDh8OXJGLCoCPDu0jCnUBvCcOMXhbDvMO9JMOUesKkw5ZTVMOGLV4Jw4LDm8OudsKjw6R7b8OVQGNfUMKrCMOdw5ALw5Bdw6jDhTLCs8K2w5fCkELChcKfOy3CumrCnkPCisKiw5hIwqtZYsO+FsKdw4AKUMKEdV9Gw7ppw4d7w4vCk8KvLsOkwqLCmMKDw4LCulnDlcKVFF5DCsOmw7BQw4shwqpMb03CnW3Cv0VnwosEdWfDgcKmw4YsGlHCkHR2woEyEX7CsDXDpzTCksOJw6jCv8OpHSIafsKje8K7bcKKWMO0F8KtSS8BwpfDp8Ogw5EgJHc5L0JUwowcwoPCvsKiwrksw6EoHSlOwrsSw6TDohjChsKiUsOtw4XDlBLDtcO8w5Jcw5TCqSQGHjXCrloYJCIpw7N7w4HDt13CvV9fw5E8O8Omwqp5ScKNa8KDw77DglTCtDkcwq06w4HDq2Rlw5BwwrteNcKBw6LCojLDhzBdwqJQw6lLEsKiITZ9w5XCvAIsNcOsDsKgL8KhOSfCug3Cp8OXw4XDmMKedHHCp8Orw5LClsKtPcOXwoU3w54lPi/CtMKlwo1CwoPDs8OuFcOgw4VUf8OnY8Klw544OHvDosKJw4jCsBjCh8OYVcOLwpBZw4ZRwrNjwoHCkjjDmMKrNz3DvMOuNsK3wrvDpcOaF1xxBcO1w4d0wr1xU8Kew6FXWmAHw4cqworDjcOtw77CisOmwqLDuTPDucOzw6ttfnbDjF3DsMOZfR/Ds8Omw6QMPMKrwrvCtnDDlhEHIsKMwrLDm8OnwpkRd1vDsMKKw6bDmTEvw4HDt8OOJAQ8wqJXbgLDkDnDq8Kgw5glCX1Fw7wBRCc2w6MwAAIQBkIQAcOCDx8gw6ARwrkwHMKDERDCnXIVw7LClsKHwprDmMOxw4vDvjYLwoF/XBbDukfCmQd8fFk/woDCkgDCisKCw5DCuzPDj13CgsK7ZsKhdRtqc8OOScOjQlg7w7tiFcKEc8OUccO5w6MmMETDmCnDoMKXLMO0woJrw7o3w7DDmntMbsOWw5XDnEU+wonDq2nDqkcSw4YxGCbDj0kdw4PDgcKXwrnClHzDgR/DuGwnw4RLBcOswprChcKYN8Kpw6rDicKJw6rDhWrDhMKXw6LDrMOzw6/DjWILTWZtw6rCmDhQw4nDuWRBbsKjcMKNLcOsHMKGFMOSw6TCp8KCw7rDviwGw6LDvUl0wpFdQVXCq8KGcxfDsmbCtR/Dh2Yiwp7CukTDncK+w73CgSzDlhjCo8KTwo99w47CqsO6asOpe8KMBh/DlsKbw63DnhTDoWjCpMKoUsO5VhYzwoFtw6nCicKxVRFdw5vCrMKSTMKww6HDtXhKw5DCssObwo0Bc8KAfyDCi8OlRyXDosKWwrB5KsK7WlQsw5JTGRc3K8K5KsOrwpzCthbDkg9kwrHCrcOtw63CksKOwp9bw5bDqsK0w5nCmRXCrcKHBWTCoCfDmcOCw6wlZMKlP8KQw4XDhiPCtGrCrMKNIsK2wrImw6kjwo9CwqMjYcKQGsKsw5nDksK1RMOswrrCqsOnwqTDhcO0w5/Di2LDrcOaw7HCm8O9wooFw4VTXMKrIsKRDXjDnh42w5hKw607el/Cm8Ofw4piwqQGwrLDrcOAWMO6w5IoaCpfSVREw7IFBMO5ZijDhXJiw75AFsOjSsKewpDCmgzDo1PDr0TDosKMacOvwp3Cg8OAwoXCrg3DrxAoaMOnf8ORLHZmw61tDsKDw5/CncODw77DlcKpw6nDocK7wqlSw77DqcOXwqdZw7N0wp4OQVAQwoFQwpREUMKCAAjDosOhaRYOw5M7H8KARwAjQMKEBHAQwoQBAkfDgMOzW8KnwqczTgAGIXR6eR7DuMOLZMKqOkvCp8OXw57DtMO3w6ltSU/Cs0lWXjQmw6MQwozDgsOQwrTCsMOrw7DDh8OLXMOfw5R4HQh+Z8OUOS0+w43DqsOzcsORw6kuw6HDp2TCicOAOAHCgTDDscO5dcKXw5jClBrCocKXw5kOwoELSXRjwo3DncOtwoPCnSDDucKdWMKLw5rDhi9+T34Gw4lHHAVQGMKdfERiEMKKYC/Cs8OZWsODw64awp/DmsObwp7ChsKBDMK2bk/DoijDuMOibiEDwoE1wrHDqcKdGcO6wrfDjcOuw4rDo2vCpV0kUkHCh8Obw7TCoELCnMKbaUbCr8OKSiJjDcKTw4/DnsOfw6xiPh0tw7YBwrMrw5IsOw1UwoMbwq3CjMKVw5MTJTQFw5HDjcOew5/DrMOWw4Q+w5R8ZlMBw4QgL8OWw7HDkj5KwqEFQz5NwrEJfmrCvsOVw6zCnmTCr1HCsEgww7PCjUXDgwVlDcKhwr9pwpxkwqNvG03DkcKgw5nDu8Kbw50iNQHCmsOKw4Y1wobDmXteH8Olw6wUTBlpwowBUHE2ITd7f8Kzw6s4J2zCh8OtQFFDMklhw7JdLsOTBzjCpsODeQXDhURqw43DnsOfw6x2wqQ5N8OEwpxtFhjDmCFQw5LDrMK7w53CjlMxwrRjHTkAwrPDmcO7wptdwqrDq0VNw5EZeEzDrXA/w4/Cjw7DhMOFRSkIw6jCsQbDu8Osw7DCrWZ3wrNiSMKzw7PCosOTwoldwoQeUwvCmBAhw5Q6NsKjPsKiwpjCnsKcwr3Cv8OZRcKSEsOAwpZww4Nlwqp7Ckc0TiTDisOAw7cVDRzCvcKQbnbCs8K/YMKzO20ywqvDs8KJw5M/wr3Cr8KEUMOwAcKEwpAHFHvDqz3CqwLDgsKLwrDDqcOlw5p2wpBhwrPDosKwEsOaHcKowpTCmMOXw7Z+TTd3wr1nDsONw5Nkw57DlB5wwpxTwqhiwqFHBgEQw5zCj8KLwp3DlGrCjcOxwr7DnsOzw4LComDCs0jDnsOucMKDR1jDohZ0wp8rw6wpUMOlwqkTWDJiIMKRR8Kow4YUasO5LcO2w4XCmxEjcFbDnQ4YwqvCksOqwqjCrHvDjkYIKSg3ZMOkwqLDtg/CsMKPwrDDq24kwqBqPlJiwqTDmS4vdQLDqsODEsKXIRXCiDbDtg/CsMOPw5bCoF4WZCTDkcOUHB5EdcOHw5tsMyXChMOIcsOWR0ZAf8KAfcOiwqHCnEvCo8ObwpTCpDLDkC7DmsOIJyLDo8O5w5XDnFDDqWV0w4TDlcOvwrLCr8K7w7NxwpLCrsOXAcONw5rCkcKJH8KsTMK1wptjTBIHPCLDsxbCshrDjsO6w7PDosO8wpjCvBTDvMOXwphvwp1ow7YHwp/DrUzCu8KDwofDq8OjTw1/SsOSwr8swonDq8KBDMKPwojDgcKZwrXDgsKwAcOIUDnCtVUASsKfwrN2wojCicOESyPDncKTXy3CicOYbcKuw4xMwp9qw5vDhWDClcKLXsOCwrs1YMKkwpbDrXNDw5zDrcO2G8KMwqNuS8Kiwqt9URI9M8OywrnCt8Kjw6QCQMOZwq1sW8OeShfCuSVBA8OzAcOYw4XDllHDqFR1wqkrwrfDpMOSwo/Ds1dTF8KAwrbCoMOeAMKUw5YQe8KAw5HCscOMwrrCqsKyLBjCi8OpQcKOwrJUwqrCi8O2wqjDi8ORdVUXwoAvwppnU8KjO8KRwqvCujN1AE7CrV7DisOEfjdXw5YpLWkYVRzChcK6SwMBw5fChMOVS8OBwoXCqcKJXMOVwo3CqQsjwpo7woA4w6DCgErCkcKYw5bDicO2w6Yiw5XDisOHwr1JIxRhwpYbYMK+wrHDiFtyJcOGG8OAw6cSdcOndsORw557AMOiwrXDmUgswpUOGsKzcMKxaCAxw7XDkMOuwpjCoMOkw4txw5NzwonDqsOfw5x+AXhfwqJabk4BQiTCmnA1wofDkj4HQ8OXwoHCtSAiLEjDosKkwpHCucKuw6oCw7DCr1LCosOiJMKKwrPDqcORw57CkhbDu8ODScO7Dw5EwoDDq1EsCT3Dt0Qgw7lPHcKIw4QGIsKww5LCvMO3CMK5FsO3w7M4w50Nw63ChlN4FcKHFWrDr8OFd8K5wqFtWnVqYQ8OYCcHwoTDpMK3FcKbwozDm8KdUFjDsEnCtDPDqX3CuQFtFsO8F8OhEMOLe8Oew5LDt8O6dMO/VTTCsE/CvEPDgcOZIsO2w4rCgkfDqcOEeMO+woTDoMKid1/ChMOmHcKXRsKqwr/Dk8OybVrCok3DkHvCksK8w4wpacOqdcO5XsKlwqPCt8OwwrvDlyPDoGUVwpDDtmDDpwQ3b8K2DVXDqAoxLFULF1LCrcOjw5xrJEPDvVfCixdwW8K8dgxQwoBDw5DCkMK9J27CpMO5w4DDr8Khw57DpsKtwpA7UsOAKcKqwohrJMKrw53CkGhRw7jDncKtwqNRwp1qBznCuXPChcOFwqrCshTCg8KCwo8Uw6EkLCwFTcKjNcO8wqbCt8KHbnnCuS7DhcOOw6fCtgnCp8Oiw67DljjDrCpswp7Cn8OUwoJiwoEFwqXCgcKgfsOLw4vDqsO7wrzChMK2w4jDlsKzwppIaMKEwqM8w7hreMOqNsKOaQx1wog2w7TCgwldw5FcHMOzV8OhZX3DpsOkf33ClcKdf8OEQcOlwp/DiU4zwqxRwr1mw5fCvMOCwqMCw4LCjTDDgVAsw4zCqjnDhTrDi8KQw6nDrsOYWcOTwq7CiAhgeHDCssOlw5TClRHDqEENwpfCgDAXwoXDvcKRW8Kxw6EPbFzDr8ObRsKsT2QJScKAQ8KpA8O9wp7CkVbDsQZeLsK9wrBMwqXCuRTCusOVw43DhsO1wo4aw7YYZyPCm8KCdFEqw6DCnMONwq3Co8K6w6vCl8KjLm9jaEB0w7luw6Nawr9Rw6NSW8OvN8Kuw6omO8Kkwr3DhBnCusKqw7kiwrPDijEhYCLDkMOVWATCoiNuc8KNw4thw7nDhcOGw7Urw5zDr8KWNcKlwqFAacOkwq7Co01bazrCi8Opwp3CkMKnwpTDksOIS1FNfsKAw7vDujpmaMKrZxBPXwbCjBc3wrAtwrTDo1jCjcOcRhEcYMO/A8OcZ2A9IGw/w4cIDMOIwojCiMKnw7fDsy3ClCd+IMOjREQYw65fasOjw6rClm1bw6ZfwqfDnB/Cv8KLw73Dt1LCjsOpC0UvScKkw7UTKMOUWcOMw40rwr3DhH1meVDDvFHDhsKgO8OKwqHDm2gewoQSIMOKw4PCvgPDpsOlwqLCo08OXWpjw6LCu8KHYMK3eh/DpcKYwq3CmX4RwqTCjR/CrFHCiGIpRsKgNgLDpHAMw4nCrMORwoxYwp3CrDzDiXLDsC3CjBJywpvCvMOpDcK7wp0nwoXCng/DtWvDo2AeWnMRCnDCrh/Dt8KeMD9BS8OpTcOvwrBUbyIZW8OSw6NqRcKHXsKSKHHCi8KrNMOAL8KwMsOOI8OCw4vDi8OOejkfwoZ9e8KvHcOdw5VrJMObBcKCf8KxdBBfakYAwo0cwqbCpcKhwqxFwpx+wqjDosK8wpsaworDsMKEG8Oxw7J1G8KMwoZvw7zDusKTS8KIwpclw5XCnxrDhMO4NcKIwpHDp8OzZBDDvcKnYjg/w6RACUvCm23Cpx01K0zCth4VcTg7bcOtw4Zsw4nDi8OBXQxLeMKwd8KOXsKywo7CvTXCgi5BBSHCpcOTw5w+w6hBw51SwrxVX8Oaw4h/wq3Du8KdwqrDihLDj2nCk8Kyw7jCkCd5w5DCnsKew4/Cgl7ClhgDw4PDnDBBwp7ClShnIVI8V8OKwqvCkgvCoiY+LsKcwoMVwr/CusO3wrfDn1IKwrLDqcOWNmdrw6/CiS98QnJ7ERd8wr/ClU7DiB5hGEVRDMKAAQjChxHDpAEnwr8Yw7XDqcOfGkPCvztWwpzDo8Kew5ZTMcKqMz80w6gtworCrjtVGMKHOVXDo8K9InDDoV3CrHguw4w0BzLClMOBwqpBCn3DtFFsEcOvAMKKYsOqPcOswojDsMOrGsO/NW4nwqFHwoIEwqcLJVACIsOIw6lGw6DDmCN0e8OBw78hbsOnGXLDn3AbZMKVw6sKSDkrwoLDgHHDvsOkwrvDlmhqUC3Csnduw58nw7YiwpELwpHCrMKAwqHCocKOwoNDwoZ5IcOuYsOSwpjCm8KlwpgdfsKnw5vCv3AdBF3DnMO+WynDucKbYCfDsEfDtMO2QsO+Q8K8DsKqwqbCjMKcdjhZA8KhwpgMwprDpcKxesKRLn3Dl0M9wpsbw4o7wq9Hwrs2E8Klw5PDiVlZfsKLa8OmeCTDhwYeF8KsUw5yVEXCr2vDtMOKwrwqwrvDgsK/FsO5w6AYFMKlw6/Cv27CmsOOw6LCs8OfZ8K/PsONw75+w7l0w6wswrl8MMO2wrwfeMK6bgjCnsOOO8KCw7PDh3TCvzzDjcKow6k6f8K+w55zw5zDny5Df8K6PFtYD2USJsOlw5jCgMK1EnhkAHTCk8Kdwr98wqDCjCvDnltEwpdBw4/CtjPCmcKywrXCklrCvloQLsOPB8OMVcK0DcKhPsKLwqcaw740A3fCicKhWW3Dg8KkwovDm8K5Kn7CjMOywqjCtVtgECLCgW0Vwq3CtBB3wqzChTJcGRzDk8Oew4xVBl3CqAXCnMKAAHdzwpHDhsKqw5DDgjbDuTl9wp3DqwUXccKPwqslNMOsRMKYwozCuBMgVcKcb8KCw4HCmDbDqWHDpxrCusODV3vDrWbCrsO/LcOgwrVmWgJxwo/Ci07CrcKdVhILw6INV8KdesKQVg/DgBfCuBrCokA8w4sXw7sxw5ZlVMKoZHxYw6Vswo8SVMK/woPChcOtw65mLgICGsKtHMOqZwDCr3PDjQfCrsOXGmDDtQzDt8OTw6XCg8ONC8Ofwp7CrsKEe8K6YcOcw5PChXJPZ8OOPV1qKHh/XUvDqMKXUsKIwpxEw7B0EQABwqAgBD58WWDDgMKzw5Uzw6sWw74lwqoywpzDrMOrUGo0w5XDmQ/Dsxo1w4jCsRjCllLCl8KRLcK2cMO7Z0TDj8ORfRnDjxYowpjCpDQNw6ZGw50kSsKUY3LDo2TDsV43ZVJ2w7nDumnDtnnCisOmHwnDmkpgDMONw5Rlw5HCvHN4LQDCjcKMw4PCrVtRwqBqw5kDw5oUwp7CnMOFw7rDlsOPFzpYIDcOw6cTwr3DkMKMWlLCuMOFwq3Dg8KBFgo1wrtCw5TDi8KdwrwLJMKTwrsPWio/wrjCp8ODwoImwoNYbgLDmcKnAsOXwpw7wobDosO1UUDCjsOow41cwpDCiCvCmsOJwqIGcDfDl8Ohw5DDm1rDhiLDj8Oiw4tcWcKqQFrCsTXCvsOANcO6O1A2wqjCg8K2w7FYwpZYBsKdwprDrUNpwq3DssOdJsOjDmV9M8KXw5zCl8K9FsKRwoTCmsOew41Fb8KtKcK+w6TDlTPDnDtcwqt7XCnDg8Olw7bCmmXCo8KtHmJpZ8KeEBvDp8KyNmLDt8K6w4zCtcKicTMXBXA7LcKDwonDpT0uUlDDl8KaW8Ogw4/DosK/SsOQwrLCgsK0WkfCpsOgw4TCsMOVw7nDrB5aJx3DgR8LRG8PXsKHWF8GbSzDksKywrXCicKrU8ObBsObw53CsMKdw7dzw4fDmsObKsOpa8KmKkrDq3PDkH7DunbDu8OwB8OCw7jCjyh4wqTCtsObID7DjMKEUsOmZ8KLwo1Gw6QlSMOowrvDilvCgUvCu8K0w6DCu8KCw4fCscKaQMOHwoTCoDvDh2nCp8Kxw6fCtnnCjcKJw6Z8WC8ZBcOrD8OdXSfDsD5PfiBxw7ARwptaAwAjYQgjSMOkw6EDwoggwo84AhMoeMO9wr3DrB5eFjFWwr4uBHIlV8K+T8ONw5HDhl5twpQiWsO4woY0GltYw4ovwovDuGkawqgdwpRWwonCuXE8w5LCssOJYcKpwo7Dsx0LwrLDqxg4wrXDpmjCng9fwqbDhgpCwrFzwr/DucO8wrc8f3HDpBwOwq7Cl37DpRZMw7JLw7vDt8OawpfCqE4Uw7wXOMO7w7zDvx1+LAk=]]></gravitDesigner:gravitGraphicSource></svg>

<svg xmlns="http://www.w3.org/2000/svg" xmlns:xlink="http://www.w3.org/1999/xlink" style="isolation:isolate" width="256" height="256"><switch><g><path d="M78.924 15.5c-35.296 0-39.094 3.625-38.921 38.994v146.012c-.173 35.369 3.625 38.994 38.921 38.994h98.157c35.297 0 38.922-3.625 38.922-38.994V54.494c0-35.369-3.625-38.994-38.922-38.994H78.924z" fill="none" vector-effect="non-scaling-stroke" stroke-width="4" stroke="#000" opacity=".2"/><defs><filter id="a" x="-200%" y="-200%" width="400%" height="400%" filterUnits="objectBoundingBox" color-interpolation-filters="sRGB"><feGaussianBlur xmlns="http://www.w3.org/2000/svg" stdDeviation="2.12"/></filter></defs><path d="M78.924 16.5c-35.296 0-39.094 3.625-38.921 38.994v146.012c-.173 35.369 3.625 38.994 38.921 38.994h98.157c35.297 0 38.003-3.637 38.922-38.994V55.494c0-35.369-3.625-38.994-38.922-38.994H78.924z" opacity=".1" filter="url(#a)"/><defs><filter id="b" x="-200%" y="-200%" width="400%" height="400%" filterUnits="objectBoundingBox" color-interpolation-filters="sRGB"><feGaussianBlur xmlns="http://www.w3.org/2000/svg" stdDeviation="8.48"/></filter></defs><g opacity=".3" filter="url(#b)"><linearGradient id="c" x1="-.068" y1=".031" x2=".954" y2="1.053" gradientTransform="matrix(176.0054 0 0 224 39.997 16.5)" gradientUnits="userSpaceOnUse"><stop offset="0%" stop-opacity=".588"/><stop offset="88%" stop-opacity="0"/><stop offset="100%"/></linearGradient><path d="M78.924 16.5c-35.296 0-39.094 3.625-38.921 38.994v146.012c-.173 35.369 3.625 38.994 38.921 38.994h98.157c35.297 0 38.922-3.625 38.922-38.994V55.494c0-35.369-3.625-38.994-38.922-38.994H78.924z" fill="url(#c)"/></g><path d="M78.924 15.5c-35.296 0-39.094 3.625-38.921 38.994v146.012c-.173 35.369 3.625 38.994 38.921 38.994h98.157c35.297 0 38.922-3.625 38.922-38.994V54.494c0-35.369-3.625-38.994-38.922-38.994H78.924z" fill="#FB7C38"/><path d="M78.925 15.5c-35.297 0-39.095 3.626-38.922 38.994v2C39.83 21.126 43.628 17.5 78.925 17.5h98.156c35.297 0 38.922 3.626 38.922 38.994v-2c0-35.368-3.625-38.994-38.922-38.994H78.925z" fill="#FFF" opacity=".6"/><path d="M128.003 15.5v224h49.078c35.297 0 38.003-3.636 38.922-38.993V54.493c0-35.368-3.625-38.993-38.922-38.993h-49.078z" fill="#FFF" opacity=".1"/><path d="M156.003 239.5l60-60v22.484c-.053 33.996-3.803 37.516-38.174 37.516h-21.826z" fill="#FFF" opacity=".2"/><g fill="#FFF"><circle vector-effect="non-scaling-stroke" cx="161.336" cy="79.778" r="7.778"/><circle vector-effect="non-scaling-stroke" cx="92.891" cy="176.222" r="7.778"/><circle vector-effect="non-scaling-stroke" cx="91.336" cy="87.556" r="6.222"/><path d="M128.669 84.444c-19.97.024-37.364 13.624-42.205 32.997 7.673-8.735 24.118-14.319 42.205-14.33 18.102.013 34.556 5.608 42.218 14.355-4.833-19.388-22.237-33.001-42.218-33.022zm-42.218 54.09c4.833 19.388 22.237 33.001 42.218 33.022 19.969-.024 37.364-13.624 42.205-32.997-7.673 8.735-24.119 14.319-42.205 14.33-18.102-.013-34.556-5.608-42.218-14.355z"/></g></g><foreignObject requiredExtensions="http://ns.gravit.io/"> </foreignObject></switch> </svg>
